!! 00048] TT[KA
!! NN
!!!OTL: Midu Shange
!!!ARE: Asia, China,ÿYunnan, Midu
!! Ethnic Group: Han
!! II, 67
!!!SCT: C0209
!!!YEM: Copyright 1995, estate of Helmut Schaffrath.
**kern
*ICvox
*Ivox
*M2/4
*k[f#c#g#]
*A:
{2ff#
=1
16ff#
16ee
4.cc#}
=2
{8ff#
16cc#
16ee
8cc#
16cc#
16b
=3
8a
16b
16cc#
16cc#
16b
16a
16f#}
=4
{8a
16b
16cc#
8a
16b
16cc#
=5
8a
16b
16a
4f#}
=6
{8cc#
16ff#
16aa
8ff#
16cc#
16ee
=7
8a
8cc#
16cc#
16b
16a
16f#}
=8
{8a
16b
16cc#
8a
16b
16cc#
=9
8a
16b
16a
4f#}
=10
{2ff#
=11
16cc#
16ee
4.cc#}
=12
{8a
16b
16cc#
8a
16b
16cc#
=13
8a
16b
16a
[4f#
=14
2f#_
=15
2f#]}
==
!!!AGN: Shange. Biaoda aiqing
!! Wenig Verzierungen, einige Fermaten. Vorspiel weggelassen.
!!    Zwei Takte, auf Fuellwoerter gesprochen, beenden das Lied.
!!!ONB: ESAC (Essen Associative Code) Database: CHINA
!!!AMT: simple duple
!!!AIN: vox
!!!EED: Helmut Schaffrath
!!!EEV: 1.0
*-
!!!ONB: Tied note syntax fixed by Craig Sapp, 2004/05/03/
